X:1
T:Title
%%score { ( 1 4 ) | ( 2 3 ) }
L:1/8
M:4/8
K:E
V:1 treble nm="Grand Piano"
V:4 treble 
V:2 bass 
V:3 bass 
V:1
 z2 z[Q:1/4=70] E/F/ | [B,EG][EGB][EGB]>[EFA] | [B,EG][A,DF][G,E][G,E] | [A,DF]>[A,DF][G,E][B,DF] | %4
[M:3/8] G3 |[M:1/8] E/F/ |[M:2/4] [B,EG][EGB] [EGB]>[EFA] | [B,EG][A,DF] [G,E][G,E] | %8
 [A,DF]>[G,E] [B,DG][A,DF] |[M:3/8] [G,E]3 |[M:1/8] [B,EG]/[B,FA]/ | %11
[M:2/4] [EGB]2 [EG][EGB]/[EGe]/ | [ce]2 ce/c/ | B[EGB]/>[B,FA]/ [B,EG][B,F]/>[A,E]/ | %14
 [B,DF]3 G/A/ | B2 z2 |[M:9/16] .e3 z3/2 |[M:2/4] BB/>A/ G[DG]/>[DF]/ |[M:3/8] E3 |] %19
V:2
 z2 z [E,B,]/-[E,A,B,]/ | E,E,E,>A,, | B,,B,,C,C, | B,,>B,,C,B,, |[M:3/8] [E,B,E]3 | %5
[M:1/8] [E,B,]/-[E,A,B,]/ |[M:2/4] E,E, E,>A,, | B,,B,, C,C, | B,,>B,, B,,B,, |[M:3/8] E,3 | %10
[M:1/8] E,/E,/ |[M:2/4] z2 B,E,/E,/ | z2[K:treble] A[A,CA]/[A,EA]/ | [G,E]E,/>E,/ E,D,/>C,/ | %14
 B,,3[K:treble] E/F/ | G2[K:bass] z2[K:treble] |[M:9/16] A3- A/ z/ z/ | %17
[M:2/4] [G,E][G,EG]/>[A,CF]/[K:bass] [B,E][B,,A,]/>[B,,A,]/ |[M:3/8] [E,G,]3 |] %19
V:3
 z2 z .G, | x4 | x4 | x4 |[M:3/8] x3 |[M:1/8] G,/ z/ |[M:2/4] x4 | x4 | x4 |[M:3/8] x3 |[M:1/8] x | %11
[M:2/4] E,4 | A,4[K:treble] | x4 | x3[K:treble] x | %15
 z[K:bass] E,/E,/ [E,B,E][K:treble][B,G]/[B,G]/ |[M:9/16] C->C[A,E]-[A,E]/[A,CA]/>[A,EA]/ | %17
[M:2/4] x2[K:bass] x2 |[M:3/8] x3 |] %19
V:4
 x4 | x4 | x4 | x4 |[M:3/8] x3 |[M:1/8] x |[M:2/4] x4 | x4 | x4 |[M:3/8] x3 |[M:1/8] x | %11
[M:2/4] x4 | E4 | x4 | x4 | z B,/B,/ GB/e/ |[M:9/16] z A,/-A,/4A,/4c-c/e/>c/ |[M:2/4] x4 | %18
[M:3/8] x3 |] %19

